dist/img/svg/vk.svg

<svg width="24" height="24" viewBox="0 0 24 24" fill="none" xmlns="http://www.w3.org/2000/svg">
<path fill-rule="evenodd" clip-rule="evenodd" d="M12 24C18.6274 24 24 18.6274 24 12C24 5.37258 18.6274 0 12 0C5.37258 0 0 5.37258 0 12C0 18.6274 5.37258 24 12 24ZM12.6244 17C7.84119 17 5.1129 13.6216 4.99922 7.99995H7.39521C7.47392 12.1261 9.24027 13.8738 10.6394 14.2342V7.99995H12.8956V11.5585C14.2772 11.4054 15.7286 9.78374 16.2183 7.99995H18.4745C18.0984 10.1981 16.5244 11.8198 15.4051 12.4864C16.5244 13.027 18.3171 14.4414 18.9992 17H16.5157C15.9823 15.2882 14.6532 13.9639 12.8956 13.7837V17H12.6244Z" fill="white"/>
</svg>

<svg width="24" height="24" viewBox="0 0 24 24" fill="none" xmlns="http://www.w3.org/2000/svg"><path fill-rule="evenodd" clip-rule="evenodd" d="M12 24c6.627 0 12-5.373 12-12S18.627 0 12 0 0 5.373 0 12s5.373 12 12 12zm.624-7C7.841 17 5.113 13.622 5 8h2.396c.079 4.126 1.845 5.874 3.244 6.234V8h2.257v3.559c1.381-.154 2.833-1.775 3.322-3.559h2.256c-.376 2.198-1.95 3.82-3.069 4.486 1.12.541 2.912 1.955 3.594 4.514h-2.483c-.534-1.712-1.863-3.036-3.62-3.216V17h-.272z" fill="#fff"/></svg>51 12.4864C16.5244 13.027 18.3171 14.4414 18.9992 17H16.5157C15.9823 15.2882 14.6532 13.9639 12.8956 13.7837V17H12.6244Z" fill="white"/>
</svg>
